svg/popcorn.svg

<svg xmlns="http://www.w3.org/2000/svg" viewBox="0 0 50 62" enable-background="new 0 0 50 62"><style type="text/css">.st0{fill:#333333;}</style><title>popcorn</title><desc>Created with Sketch.</desc><path class="st0" d="M43 7c-.9 0-1.8.2-2.6.5-1-2.1-3-3.5-5.4-3.5-1.1 0-2.1.3-3 .8l-.1.1-.1-.1c-1.4-2.3-3.9-3.8-6.8-3.8-1.4 0-2.7.4-3.9 1l-1.4 1-1-1.1c-1.2-1.2-2.9-1.9-4.7-1.9-3.9 0-7 3.1-7 7v.6l.1.5h-.6c-3.7.7-6.5 4-6.5 7.9 0 .7 0 1.4.1 2h-.1l4.7 43c.1.6.6 1 1.1 1h36.4c.6 0 1.1-.4 1.1-1l4.5-41.4c1.4-1.5 2.2-3.6 2.2-5.6 0-3.9-3.1-7-7-7zm-39 9c0-1 .4-2 1-2.7.6-.7 1.5-1.2 2.5-1.3 0 0 2.9 1.1 4.1-.5 1.3-1.5-.6-4-.6-4v-.5c0-.8.3-1.6.9-2.1.5-.6 1.3-.9 2.1-.9 1 0 1.9.5 2.5 1.3l.5 1.1v2.1c0 1.4 1.1 2.5 2.5 2.5s2.5-1.1 2.5-2.5v-2.2l.4-.3c.7-.6 1.6-1 2.6-1 .7 0 1.4.2 2 .5.6.3 1.1.8 1.5 1.4 0 0-.6 4.4 2.1 4.6 2.7.2 3.4-3.3 3.4-3.3.3-.1.6-.2 1-.2s.8.1 1.1.3c.3.2.6.5.7.8 0 0-.2 4.2 2.5 4.2l2.6-2.1c.3-.1.7-.2 1.1-.2 1.7 0 3 1.3 3 3 0 1.6-1.3 3.8-2.8 4h-39.1c-.1-.5-.1-1.1-.1-2zm20 30c-3.3 0-6-2.7-6-6s2.7-6 6-6 6 2.7 6 6-2.7 6-6 6zm-19.5-24h17.5v8.2c-4.6.9-8 5-8 9.8s3.4 8.9 8 9.8v8.2h-13.6l-3.9-36zm35.1 36h-13.6v-8.2c4.6-.9 8-5 8-9.8s-3.4-8.9-8-9.8v-8.2h17.5l-3.9 36z"/></svg>

<?xml version="1.0" encoding="utf-8"?>
<!-- Generator: Adobe Illustrator 21.0.0, SVG Export Plug-In . SVG Version: 6.00 Build 0)  -->
<svg version="1.1" id="Layer_1" xmlns="http://www.w3.org/2000/svg" xmlns:xlink="http://www.w3.org/1999/xlink" x="0px" y="0px"
	 viewBox="0 0 50 62" style="enable-background:new 0 0 50 62;" xml:space="preserve">
<style type="text/css">
	.st0{fill:#333333;}
</style>
<title>popcorn</title>
<desc>Created with Sketch.</desc>
<path class="st0" d="M43,7c-0.9,0-1.8,0.2-2.6,0.5c-1-2.1-3-3.5-5.4-3.5c-1.1,0-2.1,0.3-3,0.8l-0.1,0.1l-0.1-0.1
	C30.4,2.5,27.9,1,25,1c-1.4,0-2.7,0.4-3.9,1l-1.4,1l-1-1.1C17.5,0.7,15.8,0,14,0c-3.9,0-7,3.1-7,7c0,0.2,0,0.4,0,0.6l0.1,0.5
	L6.5,8.1C2.8,8.8,0,12.1,0,16c0,0.7,0,1.4,0.1,2H0l4.7,43c0.1,0.6,0.6,1,1.1,1h36.4c0.6,0,1.1-0.4,1.1-1l4.5-41.4
	C49.2,18.1,50,16,50,14C50,10.1,46.9,7,43,7z M4,16c0-1,0.4-2,1-2.7c0.6-0.7,1.5-1.2,2.5-1.3c0,0,2.9,1.1,4.1-0.5
	C12.9,10,11,7.5,11,7.5c0-0.1,0-0.3,0-0.5c0-0.8,0.3-1.6,0.9-2.1C12.4,4.3,13.2,4,14,4c1,0,1.9,0.5,2.5,1.3L17,6.4c0,0,0,0.1,0,0.1
	v2c0,1.4,1.1,2.5,2.5,2.5S22,9.9,22,8.5v-2c0-0.1,0-0.1,0-0.2L22.4,6C23.1,5.4,24,5,25,5c0.7,0,1.4,0.2,2,0.5
	c0.6,0.3,1.1,0.8,1.5,1.4c0,0-0.6,4.4,2.1,4.6c2.7,0.2,3.4-3.3,3.4-3.3C34.3,8.1,34.6,8,35,8c0.4,0,0.8,0.1,1.1,0.3
	c0.3,0.2,0.6,0.5,0.7,0.8c0,0-0.2,4.2,2.5,4.2s2.6-2.1,2.6-2.1c0.3-0.1,0.7-0.2,1.1-0.2c1.7,0,3,1.3,3,3c0,1.6-1.3,3.8-2.8,4H4.1
	C4,17.5,4,16.9,4,16z M24,46c-3.3,0-6-2.7-6-6s2.7-6,6-6s6,2.7,6,6S27.3,46,24,46z M4.5,22c0.1,0,0.2,0,0.4,0v0H22v8.2
	c-4.6,0.9-8,5-8,9.8s3.4,8.9,8,9.8V58H8.4L4.5,22z M39.6,58H26v-8.2c4.6-0.9,8-5,8-9.8s-3.4-8.9-8-9.8V22h17v0c0.1,0,0.3,0,0.4,0
	h0.1L39.6,58z"/>
</svg>
